X: 7121
T: Christmas In Killarney
R: jig
M: 6/8
K: Dmajor
B|:A2 DD2 B|A2 DD2 A|BAG BAG|A2 DD2 A|
B2 cd2 c|B2 A F2 D|EFE D2 C|1 D3 D2 B:|2 D3 D2 E||
F2 BB2 c|d2 cB2 c|dcB c2 A|F3 A2 F|
E2 AA2 B|c2 EA2 c|ded c2 B|A3 A2 B|
A2 DD2 B|A2 DD2 A|BAG BAG|A2 DD2 A|
B2 cd2 c|B2 AF2 D|F2 D FGA|B3 B2 c|
d2 cd2 B|A2 dF2 D|EFE D2 C|D6||

